lib/logo_tmp/nrk-logo-nrk-p2-title-below-on-dark.svg

<svg width="40" height="35" viewBox="0 0 40 35" fill="none" xmlns="http://www.w3.org/2000/svg">
<path d="M0 14.3333V0.334605H4.59339V14.3333H0ZM10.8428 2.56258L13.4844 14.3333H8.45737L5.30307 0.334605H8.12254C8.76907 0.326214 9.39641 0.554123 9.88691 0.975455C10.3782 1.37911 10.7158 1.93948 10.8428 2.56258ZM14.1744 14.3333V0.334605H18.7678V14.3333H14.1744ZM22.2372 5.65812C21.7422 5.66294 21.2552 5.53343 20.828 5.28346C20.4064 5.03981 20.0563 4.68962 19.8127 4.26803C19.5624 3.84072 19.4329 3.35355 19.4378 2.85837C19.4321 2.3662 19.5618 1.88194 19.8127 1.4585C20.0589 1.04149 20.4086 0.695109 20.828 0.452939C21.2553 0.203253 21.7423 0.073767 22.2372 0.0782812C22.7292 0.0729823 23.2133 0.202584 23.6369 0.452939C24.0521 0.697232 24.3981 1.04332 24.6424 1.4585C24.893 1.88206 25.0226 2.36624 25.0172 2.85837C25.0218 3.35352 24.8923 3.8406 24.6424 4.26803C24.4007 4.68777 24.0542 5.03766 23.6369 5.28346C23.2133 5.53431 22.7289 5.66394 22.2366 5.65812H22.2372ZM25.7269 14.3333V0.334605H30.3207V14.3333H25.7269ZM36.136 7.98461C36.1489 7.99819 36.2475 8.1592 36.4317 8.46765C36.6159 8.7761 36.8558 9.17046 37.1513 9.65067C37.447 10.1307 37.759 10.64 38.0874 11.1787C38.4157 11.7174 38.7247 12.2268 39.0143 12.7067C39.3028 13.1867 39.6313 13.7289 40 14.3333H34.9531C34.6375 13.8207 34.3515 13.3574 34.0952 12.9433C33.8389 12.5293 33.5665 12.0823 33.2778 11.6026C32.9884 11.1233 32.7024 10.6566 32.4196 10.2027C32.1368 9.74879 31.8938 9.35121 31.6905 9.0099C31.4863 8.66837 31.3449 8.43831 31.2663 8.31979C31.0713 8.02568 30.9559 7.68601 30.9315 7.33397C30.951 6.99609 31.0597 6.66947 31.2466 6.3873C31.3254 6.25585 31.47 6.0225 31.6803 5.68732C31.8906 5.35214 32.137 4.95456 32.4196 4.49451C32.7021 4.03446 32.9882 3.56454 33.2778 3.08477C33.5674 2.605 33.8398 2.15477 34.0952 1.73416C34.3519 1.31398 34.6379 0.84735 34.9531 0.334284H40L36.0962 6.70275C35.9754 6.89183 35.9073 7.10974 35.8991 7.33397C35.9121 7.56938 35.9942 7.7957 36.1353 7.98461H36.136Z" fill="white"/>
<path d="M9.52015 22.1472C9.27758 21.773 8.96587 21.4483 8.60167 21.1905C8.19598 20.907 7.74543 20.6936 7.26879 20.5595C6.69002 20.4 6.09138 20.3238 5.49105 20.3331H0V34.333H2.07398V29.3048H5.64938C6.45619 29.317 7.25238 29.12 7.96006 28.733C8.63833 28.3579 9.2016 27.8057 9.58959 27.1355C10.0056 26.396 10.2138 25.558 10.1921 24.7102C10.1938 24.252 10.1408 23.7953 10.0344 23.3496C9.93158 22.9229 9.75776 22.5164 9.52015 22.1472ZM7.68318 26.3964C7.41799 26.8123 7.02735 27.1334 6.56755 27.3133C6.00947 27.5241 5.41564 27.6246 4.81915 27.6091H2.07366V22.0486H5.09603C5.67324 22.0268 6.24775 22.138 6.77498 22.3736C7.1943 22.5759 7.53706 22.9078 7.75238 23.3201C7.98073 23.7824 8.0927 24.2935 8.07861 24.8088C8.10135 25.3648 7.9641 25.9157 7.68318 26.3964Z" fill="#FB84C1"/>
<path d="M14.2152 32.6369C14.5279 32.3694 14.8492 32.0908 15.189 31.7891C15.663 31.3686 16.1404 30.9118 16.621 30.4186C17.1017 29.9255 17.5592 29.4129 17.9938 28.881C18.416 28.366 18.8021 27.8226 19.1493 27.2545C19.4736 26.7266 19.7386 26.1645 19.9393 25.5785C20.1257 25.0391 20.2225 24.473 20.2258 23.9024C20.2351 23.3697 20.1273 22.8414 19.9097 22.3549C19.6942 21.8953 19.3767 21.4908 18.9814 21.1718C18.529 20.8139 18.0081 20.552 17.4506 20.4024C16.7654 20.2155 16.0572 20.1259 15.347 20.1362C14.8868 20.135 14.4274 20.1746 13.9742 20.2546C13.5431 20.3308 13.12 20.4464 12.7101 20.6C12.3192 20.746 11.9396 20.9205 11.5743 21.1222L11.8311 22.8376C12.1439 22.6283 12.4783 22.4531 12.8286 22.3151C13.2091 22.1624 13.6024 22.0436 14.0039 21.9602C14.4131 21.8747 14.8301 21.8319 15.2482 21.8323C15.6861 21.8234 16.1227 21.8832 16.542 22.0095C16.876 22.1116 17.183 22.2867 17.4407 22.5222C17.6727 22.7383 17.8518 23.0048 17.9641 23.301C18.079 23.6135 18.1359 23.9442 18.132 24.2771C18.1254 24.8358 18.0115 25.388 17.7963 25.9038C17.5463 26.5096 17.2282 27.0851 16.8482 27.6193C16.4057 28.247 15.9241 28.8463 15.4063 29.4137C14.8532 30.0249 14.2508 30.6362 13.599 31.2474C12.9472 31.8587 12.2722 32.4798 11.5743 33.1108L11.8311 34.3334H20.3838L20.6208 32.6373L14.2152 32.6369Z" fill="#FB84C1"/>
</svg>

<svg xmlns="http://www.w3.org/2000/svg" viewBox="0 0 40 35"><path fill="#fff" d="M0 14.333V.335h4.593v13.998H0Zm10.843-11.77 2.641 11.77H8.457L5.303.335h2.82a2.655 2.655 0 0 1 1.764.64c.491.404.829.964.956 1.588Zm3.331 11.77V.335h4.594v13.998h-4.594Zm8.063-8.675a2.738 2.738 0 0 1-1.409-.375 2.778 2.778 0 0 1-1.015-1.015 2.735 2.735 0 0 1-.375-1.41 2.685 2.685 0 0 1 .375-1.4A2.812 2.812 0 0 1 23.637.454c.415.244.761.59 1.005 1.005.251.424.38.908.375 1.4.005.496-.125.983-.375 1.41a2.8 2.8 0 0 1-1.005 1.015c-.424.251-.908.38-1.4.375Zm3.49 8.675V.335h4.594v13.998h-4.594Zm10.409-6.348c.013.013.111.174.296.483.184.308.424.702.72 1.183a386.846 386.846 0 0 1 1.862 3.056c.289.48.617 1.022.986 1.626h-5.047l-.858-1.39c-.256-.414-.529-.86-.817-1.34-.29-.48-.576-.946-.858-1.4a71.148 71.148 0 0 1-.73-1.193 21.112 21.112 0 0 0-.424-.69 2.04 2.04 0 0 1-.334-.986c.019-.338.128-.665.315-.947.078-.131.223-.364.433-.7a216.7 216.7 0 0 0 1.598-2.603l.817-1.35.858-1.4H40l-3.904 6.369c-.12.189-.189.407-.197.631.013.235.095.462.236.65h.001Z"/><path fill="#FB84C1" d="M9.52 22.147a3.514 3.514 0 0 0-.918-.956 4.414 4.414 0 0 0-1.333-.631 6.323 6.323 0 0 0-1.778-.227H0v14h2.074v-5.028h3.575a4.669 4.669 0 0 0 2.311-.572 4.271 4.271 0 0 0 1.63-1.598c.416-.739.624-1.577.602-2.425a5.767 5.767 0 0 0-.158-1.36 3.918 3.918 0 0 0-.514-1.203Zm-1.837 4.25a2.33 2.33 0 0 1-1.115.916 4.61 4.61 0 0 1-1.749.296H2.074v-5.56h3.022a3.767 3.767 0 0 1 1.679.325c.42.202.762.534.977.946.229.462.34.974.327 1.489a2.91 2.91 0 0 1-.396 1.587ZM14.215 32.637c.313-.268.634-.546.974-.848.474-.42.951-.877 1.432-1.37.48-.494.938-1.006 1.373-1.538.422-.515.808-1.058 1.155-1.627.325-.527.59-1.09.79-1.676.187-.539.284-1.105.287-1.676a3.635 3.635 0 0 0-.316-1.547 3.345 3.345 0 0 0-.929-1.183 4.237 4.237 0 0 0-1.53-.77 7.577 7.577 0 0 0-2.104-.266 7.78 7.78 0 0 0-1.373.119 7.148 7.148 0 0 0-1.264.345c-.39.146-.77.32-1.136.522l.257 1.716c.313-.21.647-.385.998-.523.38-.153.773-.271 1.175-.355.41-.085.826-.128 1.244-.128a4.19 4.19 0 0 1 1.294.177c.334.103.641.278.899.513.232.216.41.483.523.779.115.313.172.643.168.976a4.358 4.358 0 0 1-.336 1.627 8.657 8.657 0 0 1-.948 1.715 18.328 18.328 0 0 1-1.442 1.795 31.433 31.433 0 0 1-1.807 1.833c-.652.612-1.327 1.233-2.025 1.864l.257 1.222h8.553l.237-1.696h-6.406Z"/></svg>
